X: 1
T: Cacti High Five
C: Andy Reiner 2018
R: reel
Z: 2018 John Chambers <jc:trillian.mit.edu>
M: C|
L: 1/8
K: A
"A"|:\
"A"cez2 J[e2e2]ef | "A"ecAc "E"B2AB |\
"F#m"cfz2 [f3c3]e | fgaf "E"efec |
"D"dfz2 [f2d2] (3efg | "A"aecA "E"(3BcB AG |\
"Bm"FB{c}BA "D"FAAB |1 "A"cA (3cBA "E"BAFA :|2 "A"cA (3cBA "E"BAce |
"B"|:\
"D"f2{g}fe fa3 | "A"[c'6A6] ag |\
"D"f2{g}fe fgaf | "A"efec "E"B2 (3cd^d |
"A"e2fe ac'3 | "D"[d'6A6] {b}ag |\
"D"fgaf "A"efec |1 "E"BA (3BcB "A"ABce :|2 "E"BA (3BcB "A"A2AB |]
